X: 6
T:Down The Hall On Staurday Night
M:12/8
L:1/8
Q:120
C:Peter Cape
K:G
z2d ded|"G"g3-g3"C"e3-e3|"G"B2dz4d ded|
"G"g3-g3"C"e2ed3|"D"A3-A3-A2d e2d|!
"G"g3-g3"C"e3-e2A|"G"B2dz3 z3 z2d|
"D"ddd d3 c2A F3|"G"G3-G3:||
